!!!!SEGMENT: pl-wtm--r-1356_stefani-jozef--warszawa.krn
!!!cenid: 18xx:2897
!!!COM: Stefani, Józef
!!!COM-rismid: pe30024097
!!!CDT: 1800/04/16-1876/03/19
!!!CNT: Polish
!!!OTL: Warszawa
!!!PDT:
!!!AGN: Secular; Warsaw
!!!SMS-siglum: PL-Wtm
!!!SMS-shelfmark: R 1356
!!!SMS-shelfwork: W
!!!SMS-variant:
!!!SMS-altvar:
!!!NIFC-rismid: 1001119488
!!!URL-scan: http://repozytorium.nifc.pl/skany/pl-wtm-nut--r1356
!!!ONB-nifc:
!!!key:
**kern	**kern	**dynam
*part1	*part1	*part1
*staff2	*staff1	*
*Iforte	*Iforte	*
*I"[Fortepian]	*I"[Fortepian]	*
*clefF4	*clefG2	*
*>[A,B,B,C,C,D,D,E,E,A,B,C]	*>[A,B,B,C,C,D,D,E,E,A,B,C]	*
*>A	*>A	*
*k[]	*k[]	*
*C:	*C:	*
*M3/8	*M3/8	*
*all\right	*all\right	*
*2\right	*2\right	*
=1	=1	=1
!	!LO:TX:B:a:t=Mazur	!
!	!LO:TX:B:a:t=Warszawa	!
16.cLL 16.G 16.E 16.C\	16.cccLL 16.ee 16.cc\	f
32cJJk 32G 32E 32C\	32cccJJk 32ee 32cc\	.
8cL 8G 8E 8C\	8cccL 8ee 8cc\	.
!	!LO:TUP:a:problem:klamra łukowa, haczyk zamiast numeru	!
8cJ 8G 8E 8C\	24bb\L	.
.	24aa\	.
.	24gg\JJ	.
=2	=2	=2
8cL 8A 8F#X 8D#X 8C\	16.ff#X^<\LL	.
.	32aa\JJk	.
8c 8A 8F# 8D# 8C\	8ee\L	.
8cJ 8A 8F# 8D# 8C\	8cc\J	.
=3	=3	=3
*rep	*	*
8cL 8A 8F#X 8D#X 8C\	16.cccLL 16.cc^<\	.
.	32aa\JJk	.
8c 8A 8F# 8D# 8C\	8gg\L	.
8cJ 8A 8F# 8D# 8C\	8ee\J	.
*Xrep	*	*
=4	=4	=4
*rep	*	*
8cL 8A 8F#X 8D#X 8C\	16.ff#X^<\LL	.
.	32aa\JJk	.
8c 8A 8F# 8D# 8C\	8gg\L	.
8cJ 8A 8F# 8D# 8C\	8ee\J	.
*Xrep	*	*
=5	=5	=5
8G 8GG\	16.ffLL 16.dd'\	.
.	32ffJJk 32dd'\	.
8dL 8B 8G\	8ffL 8dd'\	.
8dJ 8B 8G\	(16eeL 16cc\	.
.	16ddJJ 16b\)	.
=6	=6	=6
!!LO:LB:g=original
16.cLL 16.C\	16.eeLL 16.cc\	.
32dJJk 32D\	32bJJk 32g\	.
8eL 8E\	8ccL 8g'\	.
8cJ 8C\	8eeJ 8cc 8g\	.
=7	=7	=7
8G 8GG/	16.ff|LL 16.dd\	.
.	32ff|JJk 32dd\	.
8dL 8B 8G\	16ff|LL 16dd\	.
.	(32gg\L	.
.	32ff\JJJ	.
8dJ 8B 8G\	16eeLL 16cc\)	.
.	16dd|JJ 16b\	.
=8	=8	=8
16.cLL 16.C\	16.eeLL 16.cc\	.
32dJJk 32D\	32bJJk 32g\	.
8eL 8E\	8ccL 8g'\	.
8cJ 8C\	8eeJ 8cc 8g\	.
=9!|:	=9!|:	=9!|:
*>B	*>B	*
8BL 8G 8D\	16.dd|LL 16.b 16.g\	f
.	32dd|JJk 32b 32g\	.
8B 8G 8D\	8bb|L 8gg 8g\	.
8BJ 8G 8D\	(16aa\L	p
.	16gg\JJ)	.
=10	=10	=10
!!LO:LB:g=original
*tremolo	*	*
8cL 8F#X 8D\	16.ff#X\LL	.
.	32ee\K	.
8c 8F# 8D\	16.dd\	.
.	32cc\K	.
8cJ 8F# 8D\	16.b\	.
.	32a\JJk	.
*Xtremolo	*	*
=11	=11	=11
8G 8GG/	16.bLL 16.g\	f
.	32eeJJk 32cc\	.
8BL 8G 8D\	8ddL 8b\	.
8BJ 8G 8D\	8bJ 8g\	.
=12	=12	=12
8G 8GG/	16.ggLL 16.b 16.g\	.
.	32eeJJk 32cc\	.
8BL 8G 8D\	8ddL 8b\	.
8BJ 8G 8D\	8bJ 8g\	.
=13	=13	=13
*^	*	*
4.BB/	8BB\L	16.dd#X|\LL	p
.	.	32b|\JJk	.
.	8B 8F#X 8D#X\	8bb\L	.
.	8BJ 8F# 8D#\	(16aa\L	.
.	.	16ff#X\JJ)	.
=14	=14	=14	=14
4.E/	8E\L	16.gg|\LL	.
.	.	32ff#X|\JJk	.
.	8B 8G\	8ee|\L	.
.	.	(8qddd#X/	.
.	8BJ 8G\	8eee\J)	.
=15	=15	=15	=15
!!LO:LB:g=original
4.D/	8D\L	16.ff#X|\LL	.
.	.	32dd'\JJk	.
.	8c 8A\	8ddd|\L	.
.	8cJ 8A\	(16ccc\L	.
.	.	16aa\JJ)	.
*v	*v	*	*
=16	=16	=16
8B 8G\	8gg\	.
!	!	!LO:DY:t=for
8G 8GG/	8ggg 8bb 8gg\	f
(16G\LL	(16gg\LL	.
32A\L	32aa\L	.
32B\JJJ)	32bb\JJJ)	.
=17	=17	=17
16.c\LL	16.ccc\LL	f
32cJK 32G 32E 32C\	32cccJK 32ee 32cc\	.
8c 8G 8E 8C\	8cccJ 8ee 8cc\	.
8cJ 8G 8E 8C\	(16bb\LL	.
.	32aa\L	.
.	32gg\JJJ)	.
=18	=18	=18
8c 8A 8F#X 8D#X 8C\	16.ff#X^<\LL	.
.	32aa\JJk	.
8cL 8A 8F# 8D# 8C\	8gg\L	.
8cJ 8A 8F# 8D# 8C\	8ee\J	.
=19	=19	=19
!!LO:LB:g=original
8c 8A 8F#X 8D#X 8C\	16.cccLL 16.cc^<\	.
.	32aa\JJk	.
8cL 8G 8E 8C\	8gg\L	.
8cJ 8G 8E 8C\	8ee\J	.
=20	=20	=20
*rep	*	*
8c 8A 8F#X 8D#X 8C\	16.ff#X^<\LL	.
.	32aa\JJk	.
8cL 8G 8E 8C\	8gg\L	.
8cJ 8G 8E 8C\	8ee\J	.
*Xrep	*	*
=21	=21	=21
8G 8GG\	16.ffnLL 16.dd\	.
.	32ffJJk 32dd\	.
8dL 8B 8G\	8ffL 8dd\	.
8dJ 8B 8G\	16eeL 16cc\	.
.	16ddJJ 16b\	.
=22	=22	=22
16.cLL 16.C\	16.eeLL 16.cc\	.
32dJJk 32D\	32bJJk 32g\	.
8eL 8E\	8ccL 8g\	.
8cJ 8C\	8eeJ 8cc 8g\	.
=23	=23	=23
8G 8GG\	16.ffLL 16.dd'\	.
.	32ffJJk 32dd'\	.
8fL 8d 8G\	16ffLL 16dd\	.
.	(32ggL 32ee\	.
.	32ffJJJ 32dd\	.
8fJ 8d 8G\	16eeLL 16cc\)	.
.	16ddJJ 16b'\	.
=24	=24	=24
!!LO:LB:g=original
16e 16c\	16cc\	.
16r	16r	.
8c 8C\	8ccc 8gg 8ee 8cc\	.
8r	8r	.
=25:|!|:	=25:|!|:	=25:|!|:
*>C	*>C	*
*	*Xtuplet	*
!LO:TX:t=P:problem:mixedbeam	!	!
8AA/L	24a'\LL	p
.	(24cc\	.
.	24dd\JJ	.
8c 8A 8E\	8ee\L)	.
8cJ 8A 8F#X\	8dd#X'^<\J	.
=26	=26	=26
!LO:TX:t=P:problem:mixedbeam	!	!
8AA/L	16.aa\LL	.
.	32ff\JJk	.
8c 8A 8E\	8ee\L	.
8cJ 8A 8E\	8cc\J	.
=27	=27	=27
*	*tuplet	*
!LO:TX:t=P:problem:mixedbeam	!LO:TUP:b:problem:klamra łukowa z przecinkiem	!
8GG#X/L	24b/LL	.
.	24cc/	.
.	24b/J	.
8d 8B 8E\	8e/J	.
.	(8qdd#X/	.
8dJ 8B 8E\	8ee\)	.
=28	=28	=28
!!LO:PB:g=original
!	!LO:TUP:b	!
8cL 8A\	(24cc/LL	.
.	24dd/	.
.	24cc/JJ	.
!	!LO:TUP:b	!
8dJ 8G#X 8E\	24b/LL	.
.	24cc/	.
.	24b/JJ)	.
8c 8A\	8a/	.
=29	=29	=29
*^	*	*
*	*	*Xtuplet	*
4.D/	8D\L	24a'\LL	.
.	.	(24dd\	.
.	.	24ee\JJ	.
.	8d 8A 8F\	8ff\L)	.
.	8dJ 8A 8F\	8dd'^<\J	.
=30	=30	=30	=30
.	.	8qa/	.
4.E/	8E\L	16.aa\LL	.
.	.	32ff\JJk	.
.	8c 8A\	8ee\L	.
.	8cJ 8A\	8cc\J	.
*v	*v	*	*
=31	=31	=31
*	*tuplet	*
!	!LO:TUP:b:problem:klamra łukowa, haczyk zamiast numeru	!
8E 8EE/	24b/LL	.
.	24cc/	.
.	24b/J	.
8dL 8B 8G#X 8E\	8e/J	.
.	(8qdd#X/	.
8dJ 8B 8G# 8E\	8ee\)	.
=32	=32	=32
8c 8A\	8a/	.
8A 8AA/	8aa 8cc 8a\	.
8r	8r	.
=33	=33	=33
!!LO:LB:g=original
8G 8GG/	16.b/LL	f
.	32g/JJk	.
4B 4BB\	8ggL 8dd 8g\	.
.	8ffJ 8dd 8g\	.
=34	=34	=34
16.cLL 16.C\	16.eeLL 16.cc 16.g\	.
32dJJk 32D\	32ddJJk 32b 32g\	.
8eL 8E\	8ccL 8g\	.
8cJ 8C\	8eeJ 8cc 8g\	.
=35	=35	=35
!LO:TX:t=P:problem:mixedbeam	!LO:TUP:a:problem:klamra łukowa	!
8GG/L	24dd\LL	.
.	24ee\	.
.	24dd\JJ	.
8d 8G 8F\	8a/L	.
8dJ 8G 8F\	8b/J	.
=36	=36	=36
8C\L	16.cc\LL	.
.	32ee\K	.
8c 8A 8F#X 8D#X 8C\	16.aa\	.
.	32ff#X\JK	.
8cJ 8G 8E 8C\	8gg\J	.
=37	=37	=37
8AA 8AAA/	16.cc#X\LL	.
.	32a\JJk	.
4C#X 4CC#X/	8aaL 8ee 8a\	.
.	8ggJ 8ee 8a\	.
=38	=38	=38
!!LO:LB:g=original
16.DLL 16.DD/	16.ffLL 16.dd 16.a\	.
32EJJk 32EE/	32eeJJk 32cc#X 32a\	.
8FL 8FF/	8ddL 8a\	.
8DJ 8DD/	8ffJ 8dd 8a\	.
=39	=39	=39
8GG 8GGG/	16.dd\LL	.
.	32g\JJk	.
8BL 8G 8F 8D\	8ggL 8b 8g\	.
8BJ 8G 8F 8D\	8b\J	.
=40	=40	=40
8c 8G 8E 8C\	16cc\LL	.
.	(64gg\LL	.
.	64ff\	.
.	64ee\	.
.	64dd\JJJJ	.
8c 8G 8E 8C\	8cc\)	.
!	!LO:TX:t=P:problem:fermata na dwukresce	!
8r	8r	.
!!LO:TX:a:t=fine
=41:|!|:;	=41:|!|:;	=41:|!|:;
*k[b-]	*k[b-]	*
*M3/8	*M3/8	*
!!LO:LB:g=original
*>D	*>D	*
!	!LO:TX:a:t=Trio.	!
16.FLL 16.FF/	16.aLL 16.f 16.c/	p
32FJJk 32FF/	32aJJk 32f 32c/	.
8CL 8CC/	8gL 8e 8c/	.
8FJ 8FF/	8aJ 8f 8c/	.
=42	=42	=42
8D 8DD/	8cc 8f/	.
4D-X 4DD-X/	4b- 4f^/	.
=43	=43	=43
16.CLL 16.CC/	16.aLL 16.f/	.
32CJJk 32CC/	32aJJk 32f/	.
8CL 8CC/	8gL 8e/	.
8DnJ 8DDn/	8fJ 8d/	.
=44	=44	=44
8C 8CC/	8g 8e/	.
4C 4CC/	4c^>/	.
=45	=45	=45
[8FL 8D ((8BB-\	16.d^/LL	.
.	32f/JJk	.
8F] 8C 8AA\))	8c/L	.
8FJ 8C 8AA'\	8fT/J	.
=46	=46	=46
!	!LO:TUP:problem:klamra łukowa z 3	!
[8FL (8D (8BB-\	(24d^/LL	.
.	24e/	.
.	24f/JJ)	.
8F] 8C) 8AA\)	8c/L	.
8FJ 8C 8AA\	8fT/J	.
=47	=47	=47
!!LO:LB:g=original
*	*Xtuplet	*
8BB- 8BBB-/	24d'/LL	f
.	(24f#X/	.
.	24g/JJ)	.
8AL 8F 8C\	8c/L	.
8B-J 8G 8C\	8eT/J	.
=48	=48	=48
8A 8F\	8f/	.
4c 4G 4C\	4cc 4g 4e/	.
=49	=49	=49
8F 8FF/	16.aLL 16.f/	p
.	32ccJJk 32a/	.
8dL 8Bn 8F\	8ddL 8g#X^/	.
8cJ 8A 8F\	8ccJ 8a/	.
=50	=50	=50
8F 8FF/	16.ffLL 16.a/	.
.	32aJJk 32f/	.
8dL 8Bn 8F\	8ddL 8g#X^/	.
8cJ 8A 8F\	8ccJ 8a/	.
=51	=51	=51
!	!LO:TUP:problem:brak klamry, haczyk zamiast numeru	!
8c 8G 8C\	(24b-LL 24gn/	.
.	24cc 24a/	.
.	24b-JJ 24g/	.
8r	8aL 8f/)	.
8c 8B- 8C\	8gJ 8e'/	.
=52	=52	=52
8c 8A 8F\	(24e/LL	.
.	24f/)	.
.	24a'/JJ	.
8r	(8dd/L	.
8c 8A 8F\	8cc/J)	.
=53	=53	=53
!!LO:LB:g=original
*	*tuplet	*
!	!LO:TUP:b:problem:klamra łukowa, haczyk zamiast numeru	!
8c 8G 8C\	24b-LL 24g/	.
.	24cc 24a/	.
.	24b-JJ 24g/	.
8r	8aL 8f/	.
8c 8B- 8C\	8gJ 8e/	.
=54	=54	=54
*	*Xtuplet	*
8c 8A 8F\	(24f/LL	.
.	24a/)	.
.	24e'/JJ	.
8r	8f'/L	.
8c 8A 8F\	8a/J	.
=55	=55	=55
8c 8G 8C\	24b-LL 24g/	.
.	24cc 24a/	.
.	24b-JJ 24g/	.
8r	8aL 8f/	.
8c 8B- 8C\	8gJ 8e/	.
=56	=56	=56
8c 8A 8F\	(24e/LL	.
.	24f/)	.
.	24a'/JJ	.
8r	8dd\L	.
8c 8A 8F\	8cc\J	.
=57	=57	=57
8B-L 8BB-\	24dd'\LL	.
.	(24ff#X\	.
.	24gg\JJ)	.
8A 8F 8C\	8cc\L	.
8B-J 8G 8C\	8eeT\J	.
=58	=58	=58
8A 8F\	8ff\	.
4A 4F\	4f/	.
=59:|!|:	=59:|!|:	=59:|!|:
*k[b-]	*k[b-]	*
!!LO:PB:g=original
*>E	*>E	*
*tremolo	*tuplet	*
!	!LO:TUP:a:problem:klamra łukowa, haczyk zamiast numeru	!
8AL 8E 8C#X\	24ee\LL	f
.	24ff\	.
.	24ee\JJ	.
8A 8E 8C#\	8a\L	.
8AJ 8E 8C#\	8ee'\J	.
=60	=60	=60
8AL 8F 8D\	16.ff|\LL	.
.	32ee|\K	.
8A 8F 8D\	16.dd|\	.
.	32b-|\JK	.
8AJ 8F 8D\	8a|\J	.
*Xtremolo	*	*
=61	=61	=61
!	!LO:TUP:a:problem:klamra łukowa, haczyk zamiast numeru	!
8AA/	24cc#X\LL	.
.	24dd\	.
.	24cc#\JJ	.
8AL 8G 8E\	(16g#X\LL	.
.	16a\)	.
8AJ 8G 8E\	(16aa\	.
.	16ggn\JJ)	.
=62	=62	=62
.	(8qgg/	.
*tremolo	*	*
8AL 8F 8D\	16.ff\LL)	.
.	32ee|\K	.
8A 8F 8D\	16.dd|\	.
.	32cc#X|\K	.
8AJ 8F 8D\	(16dd\	.
.	16ff\JJ)	.
*Xtremolo	*	*
=63	=63	=63
*^	*	*
!	!	!LO:TUP:a:problem:klamra łukowa, haczyk zamiast numeru	!
4.GG/	8GG\L	24gg\LL	.
.	.	24ff#X\	.
.	.	24gg\JJ	.
.	8G 8E 8BB-\	8bb-\L	.
.	8GJ 8E 8BB-\	8gg\J	.
=64	=64	=64	=64
!	!	!LO:TUP:a:problem:klamra łukowa, haczyk zamiast numeru	!
4.AA/	8AA\L	24ffn\LL	.
.	.	24gg\	.
.	.	24ff\JJ	.
.	8A 8F 8D\	8ee\L	.
.	8AJ 8F 8D\	8dd'\J	.
=65	=65	=65	=65
4.AA/	8AA\L	16.cc#X\LL	.
.	.	32b-\K	.
.	8G 8C#X\	16.a\	.
.	.	32gg\K	.
.	8GJ 8C#\	16.ff\	.
.	.	32ee\JJk	.
*v	*v	*	*
=66	=66	=66
8F 8D\	8dd\L	.
8D 8DD/	8dddJ 8ff 8dd\	.
8r	8r	.
=67	=67	=67
8F 8FF/	16.aLL 16.f/	p
.	32ccJJk 32a/	.
8dL 8Bn 8F\	(>8ddL 8g^/	.
8cJ 8A 8F\	8ccJ 8a/)	.
=68	=68	=68
!!LO:LB:g=original
8FL 8FF\	16.ffLL 16.a/	.
.	32aJJk 32f/	.
8d 8Bn 8F\	(8ddL 8g#X^/	.
8cJ 8A 8F\	8ccJ 8a/)	.
=69	=69	=69
!	!LO:TUP:b:problem:klamra łukowa, haczyk zamiast numeru	!
8c 8F 8C\	24b-LL 24gn/	.
.	24cc 24a/	.
.	24b-JJ 24g/	.
8r	8aL 8f/	.
8c 8B- 8C\	8gJ 8e'/	.
=70	=70	=70
*	*Xtuplet	*
8c 8A 8F\	(24e/LL	.
.	24f/)	.
.	24a'/JJ	.
8r	(8dd\L	.
8c 8A 8F\	8cc\J)	.
=71	=71	=71
*	*tuplet	*
!	!LO:TUP:b:problem:klamra łukowa, haczyk zamiast numeru	!
8c 8G 8C\	24b-LL 24g/	.
.	24cc 24a/	.
.	24b-JJ 24g/	.
8r	8aL 8f/	.
8c 8B- 8C\	8gJ 8e/	.
=72	=72	=72
*	*Xtuplet	*
8c 8A 8F\	(24f/LL	.
.	24a/)	.
.	24c'/JJ	.
8r	8f'/L	.
8c 8A 8F\	8a'/J	.
=73	=73	=73
!!LO:LB:g=original
*	*tuplet	*
!	!LO:TUP:b:problem:brak klamry, haczyk zamiast numeru	!
8c 8G 8C\	(24b-LL 24g/	.
.	24cc 24a/	.
.	24b-JJ 24g/	.
8r	8aL 8f/)	.
8c 8B- 8C\	8gJ 8e'/	.
=74	=74	=74
*	*Xtuplet	*
8c 8A 8F\	(24e/LL	.
.	24f/)	.
.	24a'/JJ	.
8r	(8dd\L	.
8c 8A 8F\	8cc\J)	.
=75	=75	=75
8B- 8BB-\	24dd'\LL	f
.	(24ff#X\	.
.	24gg\JJ)	.
8AL 8F 8C\	8cc\L	.
8B-J 8G 8C\	8eeT\J	.
=76	=76	=76
8A 8F\	8ff\	.
4A 4F\	4f/	.
!!LO:TX:b:t=Mazur da capo al fine
=:|!;	=:|!;	=:|!;
*-	*-	*-
!!!system-decoration: {(s1,s2)}
!!!RDF**kern: | = vertical stroke
!!!RDF**kern: > = above
!!!RDF**kern: < = below
!!!AIN: 1 forte
!!!ENC: Kamil Watkowski
!!!END: 2021-08-10
